src/lib/packages/icons/src/assets/filled/euro-square.svg

<svg width="24" height="24" viewBox="0 0 24 24" fill="none" xmlns="http://www.w3.org/2000/svg">
<path d="M17.625 3H6.375C4.125 3 3 4.125 3 6.375V17.625C3 19.875 4.125 21 6.375 21H17.625C19.875 21 21 19.875 21 17.625V6.375C21 4.125 19.875 3 17.625 3ZM13.188 10.125C13.602 10.125 13.938 10.461 13.938 10.875C13.938 11.289 13.602 11.625 13.188 11.625H10.038C10.025 11.75 10 11.872 10 12C10 12.128 10.025 12.25 10.038 12.375H13.188C13.602 12.375 13.938 12.711 13.938 13.125C13.938 13.539 13.602 13.875 13.188 13.875H10.522C11.173 14.99 12.369 15.75 13.75 15.75C14.235 15.75 14.708 15.659 15.158 15.478C15.544 15.322 15.979 15.51 16.134 15.894C16.289 16.278 16.102 16.715 15.718 16.87C15.09 17.122 14.428 17.25 13.751 17.25C11.519 17.25 9.62 15.844 8.862 13.875H7.56299C7.14899 13.875 6.81299 13.539 6.81299 13.125C6.81299 12.711 7.14899 12.375 7.56299 12.375H8.53802C8.52903 12.249 8.5 12.128 8.5 12C8.5 11.872 8.52903 11.751 8.53802 11.625H7.56299C7.14899 11.625 6.81299 11.289 6.81299 10.875C6.81299 10.461 7.14899 10.125 7.56299 10.125H8.862C9.62 8.156 11.518 6.75 13.751 6.75C14.437 6.75 15.101 6.88104 15.725 7.13904C16.108 7.29704 16.29 7.73602 16.132 8.11902C15.974 8.50102 15.537 8.684 15.152 8.526C14.71 8.343 14.239 8.25098 13.751 8.25098C12.369 8.25098 11.173 9.01098 10.523 10.126H13.188V10.125Z" fill="currentColor"/>
</svg>

<svg xmlns="http://www.w3.org/2000/svg" width="24" height="24" fill="none"><path fill="currentColor" d="M17.625 3H6.375C4.125 3 3 4.125 3 6.375v11.25C3 19.875 4.125 21 6.375 21h11.25C19.875 21 21 19.875 21 17.625V6.375C21 4.125 19.875 3 17.625 3Zm-4.437 7.125a.75.75 0 0 1 0 1.5h-3.15c-.013.125-.038.247-.038.375s.025.25.038.375h3.15a.75.75 0 0 1 0 1.5h-2.666c.651 1.115 1.847 1.875 3.228 1.875.485 0 .958-.091 1.408-.272a.749.749 0 1 1 .56 1.392 5.26 5.26 0 0 1-1.967.38c-2.232 0-4.131-1.406-4.889-3.375H7.563a.75.75 0 0 1 0-1.5h.975c-.009-.126-.038-.247-.038-.375s.029-.249.038-.375h-.975a.75.75 0 0 1 0-1.5h1.299c.758-1.969 2.656-3.375 4.889-3.375.686 0 1.35.131 1.974.389a.75.75 0 0 1-.573 1.387 3.641 3.641 0 0 0-1.401-.275c-1.382 0-2.578.76-3.228 1.875h2.665v-.001Z"/></svg>
